packages/kaspersky-hexa-ui-icons/src/iconsSVGs/24/VoiceAssistant.svg

<svg xmlns="http://www.w3.org/2000/svg" width="24" height="24" fill="none" viewBox="0 0 24 24"><path fill="#000" fill-rule="evenodd" d="M12 4c.5523 0 1 .4477 1 1v14c0 .5523-.4477 1-1 1s-1-.4477-1-1V5c0-.5523.4477-1 1-1M8 7c.5523 0 1 .4477 1 1v7c0 .5523-.4477 1-1 1s-1-.4477-1-1V8c0-.5523.4477-1 1-1m8 0c.5523 0 1 .4477 1 1v7c0 .5523-.4477 1-1 1s-1-.4477-1-1V8c0-.5523.4477-1 1-1M4 10c.5523 0 1 .4477 1 1v2c0 .5523-.4477 1-1 1s-1-.4477-1-1v-2c0-.5523.4477-1 1-1m16 0c.5523 0 1 .4477 1 1v2c0 .5523-.4477 1-1 1s-1-.4477-1-1v-2c0-.5523.4477-1 1-1"/></svg>

<svg width="24" height="24" viewBox="0 0 24 24" fill="none" xmlns="http://www.w3.org/2000/svg">
<path fill-rule="evenodd" clip-rule="evenodd" d="M12 4C12.5523 4 13 4.44772 13 5V19C13 19.5523 12.5523 20 12 20C11.4477 20 11 19.5523 11 19V5C11 4.44772 11.4477 4 12 4ZM8 7C8.55228 7 9 7.44772 9 8V15C9 15.5523 8.55228 16 8 16C7.44772 16 7 15.5523 7 15V8C7 7.44772 7.44772 7 8 7ZM16 7C16.5523 7 17 7.44772 17 8V15C17 15.5523 16.5523 16 16 16C15.4477 16 15 15.5523 15 15V8C15 7.44772 15.4477 7 16 7ZM4 10C4.55228 10 5 10.4477 5 11V13C5 13.5523 4.55228 14 4 14C3.44772 14 3 13.5523 3 13V11C3 10.4477 3.44772 10 4 10ZM20 10C20.5523 10 21 10.4477 21 11V13C21 13.5523 20.5523 14 20 14C19.4477 14 19 13.5523 19 13V11C19 10.4477 19.4477 10 20 10Z" fill="black"/>
</svg>
